assets/icons/qvision/ios_share.svg

<svg xmlns="http://www.w3.org/2000/svg" height="24" viewBox="0 0 24 24" width="24"><path d="M0 0h24v24H0V0z" fill="none"/><path d="M16 5l-1.42 1.42-1.59-1.59V16h-1.98V4.83L9.42 6.42 8 5l4-4 4 4zm4 5v11c0 1.1-.9 2-2 2H6c-1.11 0-2-.9-2-2V10c0-1.11.89-2 2-2h3v2H6v11h12V10h-3V8h3c1.1 0 2 .89 2 2z"/></svg>

<svg width="24" height="24" viewBox="0 0 24 24" fill="none" xmlns="http://www.w3.org/2000/svg">
<g clip-path="url(#clip0_147_6492)">
<path d="M16 5L14.58 6.42L12.99 4.83V16H11.01V4.83L9.42 6.42L8 5L12 1L16 5ZM20 10V21C20 22.1 19.1 23 18 23H6C4.89 23 4 22.1 4 21V10C4 8.89 4.89 8 6 8H9V10H6V21H18V10H15V8H18C19.1 8 20 8.89 20 10Z" fill="#323232"/>
</g>
<defs>
<clipPath id="clip0_147_6492">
<rect width="24" height="24" fill="white"/>
</clipPath>
</defs>
</svg>
